X:1
T:St. Chrysostom (Ohl), 77.77.77
T:St. Chrysostom (Ohl), 77.77.77
T:Jeremiah Franklin Ohl, 1917
T:Public Domain Courtesy of the Cyber Hymnal™
C:Jeremiah Franklin Ohl, 1917
Z:Public Domain
Z:Courtesy of the Cyber Hymnal™
%%score ( 1 2 ) ( 3 4 )
L:1/8
Q:1/4=113
M:4/4
K:D
V:1 treble 
V:2 treble 
V:3 bass 
V:4 bass 
V:1
 [DF]2 (FE) D2 [DF]2 | A3 z G [DF]4 | [CA]2 [DA]2 [EA]3 [CE] | [DE]2 [DB]2 [CA]4 | %4
 [B,B]2 B2 [EA]2 [DA]2 | [DG]2 G2 [CF]4 | [DF]2 [DG]2 [DA]2 [CE]2 | D2 [CE]2 [DF]4 | %8
 [DB]2 [CB]2 [DA]2 [Dd]2 | [EG]2 (AG) [DF]4 | [DA]2 [=CA]2 G2 [DF]2 | [DE]2 [CE]2 D4 |] %12
V:2
 x2 C2 D2 x2 | E2 C2 x5 | x8 | x8 | x2 (ED) x4 | x2 (ED) x4 | x8 | D2 x6 | x8 | x2 E2 x4 | %10
 x4 (B,^C) x2 | x4 D4 |] %12
V:3
 [D,A,]2 (A,G,) [B,,F,]2 [B,,B,]2 | [C,A,]2 [A,,A,]2 [D,A,]4 x | [F,A,]2 (A,B,) [E,C]3 [E,A,] | %3
 [E,G,]2 (F,G,) [A,,A,]4 | [E,G,]2 [G,B,]2 [G,C]2 [F,D]2 | [E,B,]2 [E,B,]2 [F,^A,]4 | %6
 [B,,B,]2 [B,,G,]2 [A,,E,]2 (A,G,) | [B,,F,]2 [A,,A,]2 [D,A,]4 | G,2 [E,G,]2 F,2 [F,A,]2 | %9
 [E,B,]2 [C,A,]2 [D,A,]4 | [D,F,]2 [^D,F,]2 [E,G,]2 [D,A,]2 | [G,,B,]2 (A,G,) [D,F,]4 |] %12
V:4
 x2 A,,2 x4 | x9 | x2 =F,2 x4 | x2 E,2 x4 | x8 | x8 | x6 A,,2 | x8 | G,2 F,2 x4 | x8 | x8 | %11
 x2 A,,2 x4 |] %12

